; generated by Slic3r 0.9.10b on 2013-07-01 at 18:55:12

; layer_height = 0.3
; perimeters = 4
; top_solid_layers = 3
; bottom_solid_layers = 2
; fill_density = 1
; perimeter_speed = 36
; infill_speed = 36
; travel_speed = 130
; nozzle_diameter = 0.5
; filament_diameter = 1.75
; extrusion_multiplier = .97
; perimeters extrusion width = 0.70mm
; infill extrusion width = 0.70mm
; solid infill extrusion width = 0.70mm
; top infill extrusion width = 0.70mm
; support material extrusion width = 0.70mm

G21 ; set units to millimeters
G28 ; home all axes
M92 X80
M92 Y80
G90 ; use absolute coordinates
G92 E0
M82 ; use absolute distances for extrusion
G1 F1800.000 E-6.00000
G92 E0
G1 Z0.900 F7800.000
G1 X48.210 Y47.360
G1 F1800.000 E6.00000
G1 X48.840 Y46.730 F2160.000 E6.11758
G1 X49.530 Y46.170 E6.23486
G1 X52.920 Y43.700 E6.78841
G1 X53.690 Y43.200 E6.90957
G1 X54.510 Y42.790 E7.03056
G1 X58.300 Y41.100 E7.57821
G1 X59.160 Y40.770 E7.69978
G1 X60.060 Y40.530 E7.82270
G1 X64.110 Y39.680 E8.36884
G1 X65.000 Y39.540 E8.48774
G1 X65.900 Y39.490 E8.60670
G1 X70.090 Y39.490 E9.15966
G1 X70.990 Y39.540 E9.27862
G1 X71.880 Y39.680 E9.39752
G1 X75.930 Y40.530 E9.94366
G1 X76.830 Y40.770 E10.06658
G1 X77.690 Y41.100 E10.18815
G1 X81.500 Y42.800 E10.73875
G1 X82.300 Y43.200 E10.85679
G1 X83.050 Y43.690 E10.97502
G1 X86.460 Y46.170 E11.53148
G1 X87.150 Y46.730 E11.64875
G1 X87.780 Y47.360 E11.76633
G1 X90.380 Y50.240 E12.27839
G1 X90.700 Y50.610 E12.34295
G1 X91.200 Y51.250 E12.45013
G1 X91.640 Y51.940 E12.55813
G1 X93.720 Y55.540 E13.10683
G1 X94.130 Y56.340 E13.22547
G1 X94.450 Y57.180 E13.34410
G1 X95.750 Y61.170 E13.89791
G1 X95.990 Y62.050 E14.01829
G1 X96.130 Y62.950 E14.13850
G1 X96.560 Y67.110 E14.69043
G1 X96.610 Y67.990 E14.80675
G1 X96.560 Y68.860 E14.92176
G1 X96.420 Y70.290 E15.11138
G1 X96.130 Y73.050 E15.47763
G1 X95.990 Y73.940 E15.59653
G1 X95.760 Y74.810 E15.71529
G1 X94.470 Y78.790 E16.26744
G1 X94.140 Y79.640 E16.38778
G1 X93.730 Y80.450 E16.50759
G1 X91.650 Y84.050 E17.05629
G1 X91.150 Y84.820 E17.17746
G1 X90.570 Y85.530 E17.29845
G1 X87.810 Y88.600 E17.84326
G1 X87.150 Y89.260 E17.96644
G1 X86.440 Y89.840 E18.08744
G1 X83.090 Y92.270 E18.63361
G1 X82.310 Y92.780 E18.75660
G1 X81.490 Y93.200 E18.87819
G1 X77.800 Y94.840 E19.41110
G1 X76.900 Y95.200 E19.53902
G1 X75.970 Y95.450 E19.66611
G1 X72.310 Y96.230 E20.15998
G1 X71.830 Y96.330 E20.22469
G1 X70.950 Y96.460 E20.34208
G1 X70.070 Y96.510 E20.45841
G1 X65.920 Y96.510 E21.00609
G1 X65.040 Y96.460 E21.12242
G1 X64.160 Y96.330 E21.23981
G1 X60.020 Y95.450 E21.79839
G1 X59.090 Y95.200 E21.92548
G1 X58.190 Y94.840 E22.05341
G1 X54.500 Y93.200 E22.58632
G1 X53.650 Y92.760 E22.71263
G1 X52.850 Y92.240 E22.83855
G1 X49.550 Y89.840 E23.37706
G1 X48.840 Y89.260 E23.49805
G1 X48.180 Y88.600 E23.62123
G1 X45.420 Y85.530 E24.16605
G1 X44.840 Y84.820 E24.28704
G1 X44.340 Y84.050 E24.40820
G1 X42.260 Y80.450 E24.95691
G1 X41.850 Y79.640 E25.07672
G1 X41.520 Y78.790 E25.19705
G1 X40.230 Y74.810 E25.74921
G1 X40.000 Y73.940 E25.86797
G1 X39.860 Y73.050 E25.98687
G1 X39.570 Y70.290 E26.35312
G1 X39.430 Y68.860 E26.54274
G1 X39.380 Y67.990 E26.65775
G1 X39.430 Y67.110 E26.77407
G1 X39.860 Y62.950 E27.32600
G1 X40.000 Y62.050 E27.44620
G1 X40.240 Y61.170 E27.56658
G1 X41.540 Y57.180 E28.12040
G1 X41.860 Y56.340 E28.23903
G1 X42.270 Y55.540 E28.35766
G1 X44.350 Y51.940 E28.90637
G1 X44.790 Y51.250 E29.01437
G1 X45.290 Y50.610 E29.12155
G1 X45.610 Y50.240 E29.18611
G1 X48.144 Y47.433 E29.68520
G1 X48.690 Y47.800 F7800.000
G1 X49.280 Y47.220 F2160.000 E29.79439
G1 X50.290 Y46.420 E29.96443
G1 X53.300 Y44.230 E30.45569
G1 X54.020 Y43.770 E30.56844
G1 X54.770 Y43.390 E30.67940
G1 X58.560 Y41.700 E31.22705
G1 X59.360 Y41.390 E31.34028
G1 X60.190 Y41.170 E31.45360
G1 X64.250 Y40.320 E32.00103
G1 X65.070 Y40.190 E32.11060
G1 X65.900 Y40.150 E32.22026
G1 X70.090 Y40.150 E32.77323
G1 X70.920 Y40.190 E32.88289
G1 X71.740 Y40.320 E32.99246
G1 X75.800 Y41.170 E33.53989
G1 X76.630 Y41.390 E33.65321
G1 X77.430 Y41.700 E33.76644
G1 X81.230 Y43.400 E34.31583
G1 X81.970 Y43.770 E34.42502
G1 X82.670 Y44.220 E34.53484
G1 X85.690 Y46.410 E35.02716
G1 X86.710 Y47.220 E35.19906
G1 X87.290 Y47.800 E35.30731
G1 X89.880 Y50.670 E35.81750
G1 X90.670 Y51.630 E35.98157
G1 X91.080 Y52.270 E36.08188
G1 X93.160 Y55.870 E36.63058
G1 X93.530 Y56.610 E36.73977
G1 X93.830 Y57.380 E36.84883
G1 X95.130 Y61.370 E37.40264
G1 X95.350 Y62.190 E37.51469
G1 X95.480 Y63.020 E37.62556
G1 X95.910 Y67.180 E38.17749
G1 X95.950 Y67.990 E38.28452
G1 X95.910 Y68.800 E38.39155
G1 X95.770 Y70.220 E38.57986
G1 X95.480 Y72.980 E38.94611
G1 X95.350 Y73.800 E39.05568
G1 X95.140 Y74.610 E39.16611
G1 X93.850 Y78.590 E39.71826
G1 X93.540 Y79.370 E39.82904
G1 X93.160 Y80.120 E39.93999
G1 X91.080 Y83.720 E40.48870
G1 X90.620 Y84.430 E40.60034
G1 X90.090 Y85.090 E40.71205
G1 X87.320 Y88.160 E41.25776
G1 X86.720 Y88.770 E41.37068
G1 X86.050 Y89.310 E41.48424
G1 X82.700 Y91.740 E42.03041
G1 X81.980 Y92.210 E42.14389
G1 X81.220 Y92.600 E42.25662
G1 X77.530 Y94.250 E42.79007
G1 X76.700 Y94.580 E42.90795
G1 X75.830 Y94.810 E43.02671
G1 X72.170 Y95.590 E43.52058
G1 X71.690 Y95.690 E43.58528
G1 X70.890 Y95.810 E43.69204
G1 X70.070 Y95.850 E43.80039
G1 X65.920 Y95.850 E44.34808
G1 X65.100 Y95.810 E44.45642
G1 X64.300 Y95.690 E44.56318
G1 X60.160 Y94.810 E45.12175
G1 X59.290 Y94.580 E45.24052
G1 X58.460 Y94.250 E45.35839
G1 X58.050 Y94.050 E45.41860
G1 X54.770 Y92.600 E45.89188
G1 X53.980 Y92.200 E46.00874
G1 X53.240 Y91.710 E46.12587
G1 X49.940 Y89.310 E46.66438
G1 X49.270 Y88.770 E46.77794
G1 X48.670 Y88.160 E46.89086
G1 X45.900 Y85.090 E47.43656
G1 X45.370 Y84.430 E47.54827
G1 X44.910 Y83.720 E47.65992
G1 X42.830 Y80.120 E48.20862
G1 X42.450 Y79.370 E48.31958
G1 X42.140 Y78.590 E48.43035
G1 X40.850 Y74.610 E48.98250
G1 X40.640 Y73.800 E49.09294
G1 X40.510 Y72.980 E49.20251
G1 X40.220 Y70.220 E49.56876
G1 X40.080 Y68.800 E49.75707
G1 X40.040 Y67.990 E49.86409
G1 X40.080 Y67.180 E49.97112
G1 X40.510 Y63.020 E50.52305
G1 X40.640 Y62.190 E50.63393
G1 X40.860 Y61.370 E50.74597
G1 X42.160 Y57.380 E51.29979
G1 X42.460 Y56.610 E51.40885
G1 X42.830 Y55.870 E51.51803
G1 X44.910 Y52.270 E52.06674
G1 X45.320 Y51.630 E52.16704
G1 X46.110 Y50.670 E52.33112
G1 X48.624 Y47.873 E52.82747
G1 X49.180 Y48.240 F7800.000
G1 X49.710 Y47.700 F2160.000 E52.92733
G1 X50.300 Y47.230 E53.02688
G1 X53.690 Y44.760 E53.58042
G1 X54.340 Y44.340 E53.68256
G1 X55.040 Y43.980 E53.78644
G1 X58.830 Y42.300 E54.33355
G1 X59.560 Y42.010 E54.43722
G1 X60.320 Y41.810 E54.54093
G1 X64.380 Y40.960 E55.08836
G1 X65.140 Y40.840 E55.18990
G1 X65.900 Y40.800 E55.29034
G1 X70.090 Y40.800 E55.84330
G1 X70.850 Y40.840 E55.94374
G1 X71.610 Y40.960 E56.04528
G1 X75.670 Y41.810 E56.59271
G1 X76.430 Y42.010 E56.69642
G1 X77.160 Y42.300 E56.80009
G1 X80.960 Y43.990 E57.34894
G1 X81.640 Y44.340 E57.44987
G1 X82.280 Y44.750 E57.55018
G1 X85.690 Y47.230 E58.10664
G1 X86.270 Y47.700 E58.20516
G1 X86.810 Y48.240 E58.30594
G1 X89.390 Y51.100 E58.81427
G1 X90.140 Y52.010 E58.96990
G1 X90.510 Y52.590 E59.06069
G1 X92.590 Y56.190 E59.60939
G1 X92.940 Y56.870 E59.71033
G1 X93.210 Y57.580 E59.81057
G1 X94.510 Y61.580 E60.36564
G1 X94.710 Y62.320 E60.46681
G1 X94.830 Y63.090 E60.56965
G1 X95.260 Y67.250 E61.12158
G1 X95.300 Y67.990 E61.21939
G1 X95.260 Y68.730 E61.31719
G1 X95.120 Y70.150 E61.50550
G1 X94.830 Y72.910 E61.87175
G1 X94.710 Y73.670 E61.97329
G1 X94.510 Y74.400 E62.07318
G1 X93.220 Y78.380 E62.62533
G1 X92.950 Y79.110 E62.72805
G1 X92.590 Y79.790 E62.82959
G1 X90.520 Y83.390 E63.37764
G1 X90.090 Y84.050 E63.48160
G1 X89.600 Y84.650 E63.58383
G1 X86.830 Y87.730 E64.13051
G1 X86.280 Y88.290 E64.23410
G1 X85.670 Y88.780 E64.33736
G1 X82.310 Y91.210 E64.88460
G1 X81.660 Y91.640 E64.98745
G1 X80.960 Y92.000 E65.09134
G1 X77.250 Y93.650 E65.62719
G1 X76.490 Y93.950 E65.73503
G1 X75.700 Y94.170 E65.84325
G1 X71.560 Y95.050 E66.40182
G1 X70.820 Y95.160 E66.50056
G1 X70.070 Y95.200 E66.59968
G1 X65.920 Y95.200 E67.14737
G1 X65.170 Y95.160 E67.24649
G1 X64.430 Y95.050 E67.34522
G1 X60.290 Y94.170 E67.90379
G1 X59.500 Y93.950 E68.01202
G1 X58.740 Y93.650 E68.11985
G1 X55.030 Y92.000 E68.65571
G1 X54.310 Y91.630 E68.76254
G1 X53.630 Y91.190 E68.86943
G1 X50.320 Y88.780 E69.40978
G1 X49.710 Y88.290 E69.51304
G1 X49.160 Y87.730 E69.61663
G1 X46.390 Y84.650 E70.16331
G1 X45.900 Y84.050 E70.26554
G1 X45.470 Y83.390 E70.36950
G1 X43.400 Y79.790 E70.91754
G1 X43.040 Y79.110 E71.01909
G1 X42.770 Y78.380 E71.12180
G1 X41.480 Y74.400 E71.67396
G1 X41.280 Y73.670 E71.77385
G1 X41.160 Y72.910 E71.87539
G1 X40.870 Y70.150 E72.24164
G1 X40.730 Y68.730 E72.42995
G1 X40.690 Y67.990 E72.52775
G1 X40.730 Y67.250 E72.62555
G1 X41.160 Y63.090 E73.17749
G1 X41.280 Y62.320 E73.28033
G1 X41.480 Y61.580 E73.38150
G1 X42.780 Y57.580 E73.93657
G1 X43.050 Y56.870 E74.03681
G1 X43.400 Y56.190 E74.13775
G1 X45.480 Y52.590 E74.68645
G1 X45.850 Y52.010 E74.77724
G1 X46.280 Y51.470 E74.86834
G1 X46.740 Y50.940 E74.96096
G1 X49.114 Y48.312 E75.42827
G1 X49.660 Y48.680 F7800.000
G1 X50.150 Y48.190 F2160.000 E75.51972
G1 X50.690 Y47.750 E75.61165
G1 X54.070 Y45.290 E76.16335
G1 X54.670 Y44.900 E76.25780
G1 X55.300 Y44.580 E76.35105
G1 X59.100 Y42.890 E76.89991
G1 X59.760 Y42.640 E76.99305
G1 X60.460 Y42.450 E77.08877
G1 X64.520 Y41.600 E77.63620
G1 X65.200 Y41.490 E77.72710
G1 X65.900 Y41.460 E77.81957
G1 X70.090 Y41.460 E78.37254
G1 X70.790 Y41.490 E78.46500
G1 X71.470 Y41.600 E78.55591
G1 X75.530 Y42.450 E79.10334
G1 X76.230 Y42.640 E79.19906
G1 X76.890 Y42.890 E79.29220
G1 X80.700 Y44.590 E79.84280
G1 X81.310 Y44.910 E79.93371
G1 X81.900 Y45.280 E80.02562
G1 X85.300 Y47.750 E80.58023
G1 X85.840 Y48.190 E80.67216
G1 X86.320 Y48.670 E80.76174
G1 X88.800 Y51.420 E81.25045
G1 X89.600 Y52.390 E81.41639
G1 X89.940 Y52.920 E81.49949
G1 X92.020 Y56.520 E82.04819
G1 X92.340 Y57.140 E82.14027
G1 X92.590 Y57.790 E82.23218
G1 X93.890 Y61.780 E82.78599
G1 X94.070 Y62.460 E82.87882
G1 X94.180 Y63.160 E82.97234
G1 X94.610 Y67.320 E83.52427
G1 X94.640 Y67.990 E83.61278
G1 X94.610 Y68.670 E83.70261
G1 X94.470 Y70.090 E83.89092
G1 X94.180 Y72.850 E84.25717
G1 X94.070 Y73.530 E84.34808
G1 X93.890 Y74.200 E84.43964
G1 X92.600 Y78.180 E84.99179
G1 X92.350 Y78.840 E85.08493
G1 X92.030 Y79.470 E85.17818
G1 X89.950 Y83.070 E85.72689
G1 X89.560 Y83.660 E85.82022
G1 X89.120 Y84.210 E85.91318
G1 X86.340 Y87.290 E86.46074
G1 X85.840 Y87.800 E86.55500
G1 X85.280 Y88.250 E86.64981
G1 X81.930 Y90.690 E87.19676
G1 X81.330 Y91.080 E87.29120
G1 X80.690 Y91.400 E87.38563
G1 X76.980 Y93.060 E87.92203
G1 X76.280 Y93.330 E88.02104
G1 X75.560 Y93.530 E88.11966
G1 X71.930 Y94.300 E88.60938
G1 X70.750 Y94.510 E88.76755
G1 X70.070 Y94.540 E88.85738
G1 X65.920 Y94.540 E89.40507
G1 X65.240 Y94.510 E89.49490
G1 X64.560 Y94.400 E89.58581
G1 X60.430 Y93.530 E90.14282
G1 X59.710 Y93.330 E90.24143
G1 X59.010 Y93.060 E90.34045
G1 X58.600 Y92.860 E90.40065
G1 X55.300 Y91.400 E90.87688
G1 X54.640 Y91.070 E90.97427
G1 X54.020 Y90.660 E91.07236
G1 X50.710 Y88.250 E91.61271
G1 X50.150 Y87.800 E91.70752
G1 X49.650 Y87.290 E91.80178
G1 X46.870 Y84.210 E92.34934
G1 X46.430 Y83.660 E92.44230
G1 X46.040 Y83.070 E92.53563
G1 X43.960 Y79.470 E93.08434
G1 X43.640 Y78.840 E93.17759
G1 X43.390 Y78.180 E93.27073
G1 X42.100 Y74.200 E93.82288
G1 X41.920 Y73.530 E93.91444
G1 X41.810 Y72.850 E94.00535
G1 X41.520 Y70.090 E94.37160
G1 X41.380 Y68.670 E94.55991
G1 X41.350 Y67.990 E94.64974
G1 X41.380 Y67.320 E94.73825
G1 X41.810 Y63.160 E95.29018
G1 X41.920 Y62.460 E95.38369
G1 X42.100 Y61.780 E95.47653
G1 X43.400 Y57.790 E96.03034
G1 X43.650 Y57.140 E96.12225
G1 X43.970 Y56.520 E96.21433
G1 X46.050 Y52.920 E96.76303
G1 X46.390 Y52.390 E96.84613
G1 X47.220 Y51.380 E97.01866
G1 X49.594 Y48.752 E97.48598
G1 X50.150 Y48.190 F7800.000 E97.25779
G1 X50.690 Y47.750 E97.05686
G1 X54.070 Y45.290 E95.85097
G1 X54.670 Y44.900 E95.64454
G1 X55.300 Y44.580 E95.44071
G1 X59.100 Y42.890 E94.24104
G1 X59.760 Y42.640 E94.03746
G1 X60.460 Y42.450 E93.82823
G1 X64.520 Y41.600 E92.63168
G1 X65.200 Y41.490 E92.43298
G1 X65.900 Y41.460 E92.23087
G1 X68.482 Y41.460 E91.48598
G92 E0
G1 X69.233 Y58.858
G1 F1800.000 E6.00000
G1 X69.233 Y64.574 F2160.000 E6.59891
G1 X70.273 Y65.100 E6.72095
G1 X70.273 Y59.079 E7.35181
G1 X71.312 Y59.405 E7.46595
G1 X71.312 Y66.249 E8.18303
G1 X72.351 Y67.155 E8.32748
G1 X72.351 Y59.868 E9.09100
G1 X73.390 Y60.546 E9.22102
G1 X73.390 Y67.155 E9.91348
G1 X74.430 Y67.155 E10.02237
G1 X74.430 Y61.394 E10.62603
G1 X75.469 Y62.548 E10.78876
G1 X75.469 Y67.155 E11.27148
G1 X76.508 Y67.155 E11.38037
G1 X76.508 Y64.418 E11.66711
G1 X76.508 Y67.155 F7800.000 E10.87770
G1 X75.469 Y67.155 E10.57791
G1 X75.469 Y62.548 E9.24898
G1 X74.430 Y61.394 E8.80095
G1 X74.430 Y67.155 E7.13907
G1 X73.390 Y67.155 E6.83928
G1 X73.390 Y63.092 E5.66711
G92 E0
G1 X67.155 Y71.565
G1 F1800.000 E6.00000
G1 X67.155 Y77.224 F2160.000 E6.59301
G1 X66.116 Y77.004 E6.70434
G1 X66.116 Y71.123 E7.32049
G1 X65.076 Y70.264 E7.46180
G1 X65.076 Y76.767 E8.14327
G1 X64.037 Y76.305 E8.26247
G1 X64.037 Y68.845 E9.04409
G1 X62.998 Y68.845 E9.15299
G1 X62.998 Y75.736 E9.87500
G1 X61.958 Y74.981 E10.00960
G1 X61.958 Y68.845 E10.65249
G1 X60.919 Y68.845 E10.76138
G1 X60.919 Y73.883 E11.28927
G1 X59.880 Y72.333 E11.48482
G1 X59.880 Y68.845 E11.85028
G1 X58.841 Y68.856 E11.95918
G1 X59.880 Y68.845 F7800.000 E11.65937
G1 X59.880 Y72.333 E10.65326
G1 X60.919 Y73.883 E10.11488
G1 X60.919 Y68.845 E8.66158
G1 X61.958 Y68.845 E8.36179
G1 X61.958 Y74.981 E6.59188
G1 X62.998 Y75.736 E6.22132
G1 X62.998 Y74.827 E5.95918
G92 E0
G1 X48.580 Y69.697
G1 F1800.000 E6.00000
M204 S2000
G1 X48.468 Y68.572 F6000.000 E6.14922
G1 X48.389 Y68.575 E6.15955
G1 X48.329 Y68.000 E6.23587
G1 X48.628 Y65.158 E6.61294
G1 X48.712 Y65.172 E6.62428
G1 X48.862 Y64.052 E6.77350
G1 X48.722 Y64.025 E6.79242
G1 X49.783 Y60.758 E7.24574
G1 X49.884 Y60.801 E7.26023
G1 X50.289 Y59.745 E7.40945
G1 X50.200 Y59.705 E7.42234
G1 X51.916 Y56.732 E7.87538
G1 X52.033 Y56.817 E7.89449
G1 X52.670 Y55.883 E8.04371
G1 X52.620 Y55.845 E8.05200
G1 X54.918 Y53.292 E8.50532
G1 X55.042 Y53.436 E8.53042
G1 X55.878 Y52.674 E8.67965
G1 X55.853 Y52.644 E8.68478
G1 X58.165 Y50.964 E9.06185
G1 X58.693 Y50.729 E9.13816
G1 X58.750 Y50.841 E9.15471
G1 X59.739 Y50.291 E9.30394
G1 X59.728 Y50.268 E9.30731
G1 X61.921 Y49.292 E9.62421
G1 X62.934 Y49.077 E9.76079
G1 X62.957 Y49.170 E9.77352
G1 X64.045 Y48.863 E9.92275
G1 X64.040 Y48.841 E9.92573
G1 X65.944 Y48.437 E10.18254
G1 X67.434 Y48.437 E10.37927
G1 X67.435 Y48.515 E10.38953
G1 X68.565 Y48.467 E10.53875
G1 X68.566 Y48.437 E10.54279
G1 X70.056 Y48.437 E10.73952
G1 X71.960 Y48.841 E10.99633
G1 X71.944 Y48.909 E11.00553
G1 X73.054 Y49.125 E11.15475
G1 X73.066 Y49.077 E11.16126
G1 X74.079 Y49.292 E11.29784
G1 X76.272 Y50.268 E11.61474
G1 X76.241 Y50.334 E11.62433
G1 X77.271 Y50.799 E11.77356
G1 X77.307 Y50.729 E11.78389
G1 X77.835 Y50.964 E11.86021
G1 X80.147 Y52.644 E12.23727
G1 X80.092 Y52.710 E12.24861
G1 X80.988 Y53.400 E12.39784
G1 X81.082 Y53.292 E12.41674
G1 X83.380 Y55.845 E12.87006
G1 X83.293 Y55.911 E12.88456
G1 X84.005 Y56.789 E13.03378
G1 X84.084 Y56.732 E13.04667
G1 X85.800 Y59.705 E13.49971
G1 X85.668 Y59.764 E13.51881
G1 X86.159 Y60.782 E13.66803
G1 X86.217 Y60.758 E13.67632
G1 X87.278 Y64.025 E14.12964
G1 X87.091 Y64.060 E14.15476
G1 X87.334 Y65.165 E14.30399
G1 X87.372 Y65.158 E14.30911
G1 X87.671 Y68.000 E14.68618
G1 X87.611 Y68.575 E14.76250
G1 X87.485 Y68.569 E14.77904
G1 X87.467 Y69.700 E14.92826
G1 X87.492 Y69.702 E14.93164
G1 X87.241 Y72.090 E15.24854
G1 X86.921 Y73.074 E15.38513
G1 X86.829 Y73.048 E15.39785
G1 X86.550 Y74.143 E15.54708
G1 X86.572 Y74.150 E15.55007
G1 X85.970 Y76.001 E15.80688
G1 X85.225 Y77.292 E16.00361
G1 X85.157 Y77.254 E16.01387
G1 X84.633 Y78.256 E16.16310
G1 X84.659 Y78.271 E16.16713
G1 X83.914 Y79.562 E16.36386
G1 X82.612 Y81.008 E16.62066
G1 X82.561 Y80.961 E16.62987
G1 X81.820 Y81.815 E16.77910
G1 X81.855 Y81.849 E16.78560
G1 X81.162 Y82.618 E16.92218
G1 X79.220 Y84.030 E17.23908
