; generated by Slic3r 0.9.10b on 2013-07-01 at 06:09:22

; layer_height = 0.3
; perimeters = 3
; top_solid_layers = 3
; bottom_solid_layers = 2
; fill_density = 1
; perimeter_speed = 36
; infill_speed = 36
; travel_speed = 130
; nozzle_diameter = 0.5
; filament_diameter = 1.75
; extrusion_multiplier = 1
; perimeters extrusion width = 0.70mm
; infill extrusion width = 0.70mm
; solid infill extrusion width = 0.70mm
; top infill extrusion width = 0.70mm
; support material extrusion width = 0.70mm
; first layer extrusion width = 1.00mm

G21 ; set units to millimeters
G28 ; home all axes
M92 X80
M92 Y80
G90 ; use absolute coordinates
G92 E0
M82 ; use absolute distances for extrusion
G1 F1800.000 E-6.00000
G1 Z1.300 F7800.000
G92 E0
G1 X55.769 Y55.599
G1 Z0.800
G1 F1800.000 E6.00000
G1 X57.219 Y54.409 F915.943 E6.34809
G1 X58.869 Y53.529 E6.69511
G1 X64.199 Y51.319 E7.76585
G1 X65.999 Y50.769 E8.11512
G1 X67.869 Y50.589 E8.46375
G1 X68.119 Y50.589 E8.51014
G1 X69.989 Y50.769 E8.85876
G1 X71.789 Y51.319 E9.20803
G1 X77.119 Y53.529 E10.27878
G1 X78.769 Y54.409 E10.62579
G1 X80.219 Y55.599 E10.97388
G1 X80.389 Y55.769 E11.01850
G1 X81.579 Y57.219 E11.36659
G1 X82.459 Y58.869 E11.71361
G1 X84.669 Y64.199 E12.78435
G1 X85.219 Y65.999 E13.13362
G1 X85.399 Y67.869 E13.48224
G1 X85.399 Y68.119 E13.52864
G1 X85.219 Y69.989 E13.87726
G1 X84.669 Y71.789 E14.22653
G1 X82.459 Y77.119 E15.29727
G1 X81.579 Y78.769 E15.64429
G1 X80.389 Y80.219 E15.99238
G1 X80.219 Y80.389 E16.03700
G1 X78.769 Y81.579 E16.38509
G1 X77.119 Y82.459 E16.73211
G1 X71.789 Y84.669 E17.80285
G1 X69.989 Y85.219 E18.15212
G1 X68.119 Y85.399 E18.50074
G1 X67.869 Y85.399 E18.54714
G1 X65.999 Y85.219 E18.89576
G1 X64.199 Y84.669 E19.24503
G1 X58.869 Y82.459 E20.31577
G1 X57.219 Y81.579 E20.66279
G1 X55.769 Y80.389 E21.01088
G1 X55.599 Y80.219 E21.05550
G1 X54.409 Y78.769 E21.40359
G1 X53.529 Y77.119 E21.75060
G1 X51.319 Y71.789 E22.82135
G1 X50.769 Y69.989 E23.17062
G1 X50.589 Y68.119 E23.51924
G1 X50.589 Y67.869 E23.56563
G1 X50.769 Y65.999 E23.91426
G1 X51.319 Y64.199 E24.26353
G1 X53.529 Y58.869 E25.33427
G1 X54.409 Y57.219 E25.68129
G1 X55.675 Y55.694 E26.04906
G1 X56.229 Y56.399 F7800.000
G1 X56.399 Y56.229 F915.943 E26.09367
G1 X57.719 Y55.159 E26.40899
G1 X59.219 Y54.349 E26.72534
G1 X64.549 Y52.139 E27.79608
G1 X66.179 Y51.649 E28.11194
G1 X67.869 Y51.479 E28.42713
G1 X68.119 Y51.479 E28.47352
G1 X69.809 Y51.649 E28.78872
G1 X71.439 Y52.139 E29.10457
G1 X76.769 Y54.349 E30.17532
G1 X78.269 Y55.159 E30.49166
G1 X79.589 Y56.229 E30.80699
G1 X79.759 Y56.399 E30.85160
G1 X80.829 Y57.719 E31.16692
G1 X81.639 Y59.219 E31.48327
G1 X83.849 Y64.549 E32.55402
G1 X84.339 Y66.179 E32.86987
G1 X84.509 Y67.869 E33.18506
G1 X84.509 Y68.119 E33.23146
G1 X84.339 Y69.809 E33.54665
G1 X83.849 Y71.439 E33.86251
G1 X81.639 Y76.769 E34.93325
G1 X80.829 Y78.269 E35.24960
G1 X79.759 Y79.589 E35.56492
G1 X79.589 Y79.759 E35.60953
G1 X78.269 Y80.829 E35.92486
G1 X76.769 Y81.639 E36.24120
G1 X71.439 Y83.849 E37.31195
G1 X69.809 Y84.339 E37.62780
G1 X68.119 Y84.509 E37.94300
G1 X67.869 Y84.509 E37.98939
G1 X66.179 Y84.339 E38.30459
G1 X64.549 Y83.849 E38.62044
G1 X59.219 Y81.639 E39.69118
G1 X57.719 Y80.829 E40.00753
G1 X56.399 Y79.759 E40.32285
G1 X56.229 Y79.589 E40.36747
G1 X55.159 Y78.269 E40.68279
G1 X54.349 Y76.769 E40.99914
G1 X52.139 Y71.439 E42.06988
G1 X51.649 Y69.809 E42.38573
G1 X51.479 Y68.119 E42.70093
G1 X51.479 Y67.869 E42.74732
G1 X51.649 Y66.179 E43.06252
G1 X52.139 Y64.549 E43.37837
G1 X54.349 Y59.219 E44.44911
G1 X55.159 Y57.719 E44.76546
G1 X56.145 Y56.503 E45.05593
G1 X56.859 Y57.029 F7800.000
G1 X57.029 Y56.859 F915.943 E45.10055
G1 X58.209 Y55.899 E45.38284
G1 X59.559 Y55.179 E45.66676
G1 X64.889 Y52.969 E46.73750
G1 X66.349 Y52.519 E47.02101
G1 X67.869 Y52.369 E47.30445
G1 X68.119 Y52.369 E47.35084
G1 X69.639 Y52.519 E47.63428
G1 X71.099 Y52.969 E47.91779
G1 X76.429 Y55.179 E48.98853
G1 X77.779 Y55.899 E49.27246
G1 X78.959 Y56.859 E49.55474
G1 X79.129 Y57.029 E49.59936
G1 X80.089 Y58.209 E49.88165
G1 X80.809 Y59.559 E50.16557
G1 X83.019 Y64.889 E51.23631
G1 X83.469 Y66.349 E51.51982
G1 X83.619 Y67.869 E51.80326
G1 X83.619 Y68.119 E51.84965
G1 X83.469 Y69.639 E52.13309
G1 X83.019 Y71.099 E52.41660
G1 X80.809 Y76.429 E53.48734
G1 X80.089 Y77.779 E53.77127
G1 X79.129 Y78.959 E54.05355
G1 X78.959 Y79.129 E54.09817
G1 X77.779 Y80.089 E54.38046
G1 X76.429 Y80.809 E54.66438
G1 X71.099 Y83.019 E55.73512
G1 X69.639 Y83.469 E56.01863
G1 X68.119 Y83.619 E56.30207
G1 X67.869 Y83.619 E56.34846
G1 X66.349 Y83.469 E56.63190
G1 X64.889 Y83.019 E56.91541
G1 X59.559 Y80.809 E57.98615
G1 X58.209 Y80.089 E58.27008
G1 X57.029 Y79.129 E58.55236
G1 X56.859 Y78.959 E58.59698
G1 X55.899 Y77.779 E58.87926
G1 X55.179 Y76.429 E59.16319
G1 X52.969 Y71.099 E60.23393
G1 X52.519 Y69.639 E60.51744
G1 X52.369 Y68.119 E60.80088
G1 X52.369 Y67.869 E60.84727
G1 X52.519 Y66.349 E61.13071
G1 X52.969 Y64.889 E61.41422
G1 X55.179 Y59.559 E62.48496
G1 X55.899 Y58.209 E62.76889
G1 X56.775 Y57.133 E63.02632
G1 X57.499 Y57.669 F7800.000
G1 X57.669 Y57.499 F915.943 E63.07094
G1 X58.709 Y56.639 E63.32137
G1 X59.899 Y55.999 E63.57211
G1 X65.229 Y53.789 E64.64285
G1 X66.519 Y53.399 E64.89294
G1 X67.869 Y53.269 E65.14462
G1 X68.119 Y53.269 E65.19101
G1 X69.469 Y53.399 E65.44269
G1 X70.759 Y53.789 E65.69278
G1 X76.089 Y55.999 E66.76352
G1 X77.279 Y56.639 E67.01426
G1 X78.319 Y57.499 E67.26469
G1 X78.489 Y57.669 E67.30931
G1 X79.349 Y58.709 E67.55974
G1 X79.989 Y59.899 E67.81048
G1 X82.199 Y65.229 E68.88122
G1 X82.589 Y66.519 E69.13131
G1 X82.719 Y67.869 E69.38299
G1 X82.719 Y68.119 E69.42938
G1 X82.589 Y69.469 E69.68106
G1 X82.199 Y70.759 E69.93115
G1 X79.989 Y76.089 E71.00189
G1 X79.349 Y77.279 E71.25263
G1 X78.489 Y78.319 E71.50306
G1 X78.319 Y78.489 E71.54768
G1 X77.279 Y79.349 E71.79811
G1 X76.089 Y79.989 E72.04885
G1 X70.759 Y82.199 E73.11959
G1 X69.469 Y82.589 E73.36968
G1 X68.119 Y82.719 E73.62136
G1 X67.869 Y82.719 E73.66775
G1 X66.519 Y82.589 E73.91943
G1 X65.229 Y82.199 E74.16952
G1 X59.899 Y79.989 E75.24026
G1 X58.709 Y79.349 E75.49100
G1 X57.669 Y78.489 E75.74143
G1 X57.499 Y78.319 E75.78604
G1 X56.639 Y77.279 E76.03648
G1 X55.999 Y76.089 E76.28722
G1 X53.789 Y70.759 E77.35796
G1 X53.399 Y69.469 E77.60805
G1 X53.269 Y68.119 E77.85973
G1 X53.269 Y67.869 E77.90612
G1 X53.399 Y66.519 E78.15780
G1 X53.789 Y65.229 E78.40788
G1 X55.999 Y59.899 E79.47863
G1 X56.639 Y58.709 E79.72937
G1 X57.414 Y57.773 E79.95495
G1 F1800.000 E73.95495
G1 Z1.300 F7800.000
G92 E0
G1 X62.865 Y62.865
G1 Z0.800
G1 F1800.000 E6.00000
M204 S2000
G1 X63.530 Y62.954 F2544.286 E6.12444
G1 X64.244 Y63.202 E6.26469
G1 X64.683 Y63.461 E6.35929
G1 X64.866 Y63.625 E6.40493
G1 X65.601 Y64.835 E6.66762
G1 X67.454 Y64.049 E7.04115
G1 X67.122 Y62.690 E7.30074
G1 X67.136 Y62.445 E7.34639
G1 X67.264 Y61.951 E7.44100
G1 X67.593 Y61.271 E7.58125
G1 X68.000 Y60.738 E7.70568
G1 X68.407 Y61.271 E7.83012
G1 X68.736 Y61.951 E7.97037
G1 X68.864 Y62.445 E8.06498
G1 X68.878 Y62.690 E8.11062
G1 X68.542 Y64.065 E8.37331
G1 X70.408 Y64.821 E8.74684
G1 X71.134 Y63.625 E9.00643
G1 X71.317 Y63.461 E9.05208
G1 X71.756 Y63.202 E9.14668
G1 X72.470 Y62.954 E9.28693
G1 X73.135 Y62.865 E9.41137
G1 X73.046 Y63.530 E9.53581
G1 X72.798 Y64.244 E9.67606
G1 X72.539 Y64.683 E9.77066
G1 X72.375 Y64.866 E9.81630
G1 X71.165 Y65.601 E10.07899
G1 X71.951 Y67.454 E10.45252
G1 X73.310 Y67.122 E10.71211
G1 X73.555 Y67.136 E10.75776
G1 X74.049 Y67.264 E10.85237
G1 X74.729 Y67.593 E10.99262
G1 X75.262 Y68.000 E11.11706
G1 X74.729 Y68.407 E11.24149
G1 X74.049 Y68.736 E11.38174
G1 X73.555 Y68.864 E11.47635
G1 X73.310 Y68.878 E11.52199
G1 X71.934 Y68.542 E11.78468
G1 X71.179 Y70.408 E12.15821
G1 X72.375 Y71.134 E12.41780
G1 X72.539 Y71.317 E12.46345
G1 X72.798 Y71.756 E12.55805
G1 X73.046 Y72.470 E12.69830
G1 X73.135 Y73.135 E12.82274
G1 X72.470 Y73.046 E12.94718
G1 X71.756 Y72.798 E13.08743
G1 X71.317 Y72.539 E13.18203
G1 X71.134 Y72.375 E13.22767
G1 X70.399 Y71.165 E13.49036
G1 X68.546 Y71.951 E13.86389
G1 X68.878 Y73.310 E14.12349
G1 X68.864 Y73.555 E14.16913
G1 X68.736 Y74.049 E14.26374
G1 X68.407 Y74.729 E14.40399
G1 X68.000 Y75.262 E14.52843
G1 X67.593 Y74.729 E14.65286
G1 X67.264 Y74.049 E14.79311
G1 X67.136 Y73.555 E14.88772
G1 X67.122 Y73.310 E14.93336
G1 X67.458 Y71.934 E15.19605
G1 X65.592 Y71.179 E15.56958
G1 X64.866 Y72.375 E15.82917
G1 X64.683 Y72.539 E15.87482
G1 X64.244 Y72.798 E15.96942
G1 X63.530 Y73.046 E16.10968
G1 X62.865 Y73.135 E16.23411
G1 X62.954 Y72.470 E16.35855
G1 X63.202 Y71.756 E16.49880
G1 X63.461 Y71.317 E16.59340
G1 X63.625 Y71.134 E16.63904
G1 X64.835 Y70.399 E16.90173
G1 X64.049 Y68.546 E17.27527
G1 X62.690 Y68.878 E17.53486
G1 X62.445 Y68.864 E17.58050
G1 X61.951 Y68.736 E17.67511
G1 X61.271 Y68.407 E17.81536
G1 X60.738 Y68.000 E17.93980
G1 X61.271 Y67.593 E18.06424
G1 X61.951 Y67.264 E18.20448
G1 X62.445 Y67.136 E18.29909
G1 X62.690 Y67.122 E18.34473
G1 X64.065 Y67.458 E18.60742
G1 X64.821 Y65.592 E18.98095
G1 X63.625 Y64.866 E19.24054
G1 X63.461 Y64.683 E19.28619
G1 X63.202 Y64.244 E19.38079
G1 X62.954 Y63.530 E19.52105
G1 X62.883 Y62.998 E19.62063
M204 S2000
G1 X63.430 Y63.226 F7800.000
G1 F1800.000 E13.62063
G1 Z1.300 F7800.000
G92 E0
G1 X66.067 Y66.067
G1 Z0.800
G1 F1800.000 E6.00000
M204 S2000
G1 X68.000 Y65.267 F915.943 E6.38818
G1 X69.933 Y66.067 E6.77637
G1 X70.733 Y68.000 E7.16455
G1 X69.933 Y69.933 E7.55274
G1 X68.000 Y70.733 E7.94092
G1 X66.067 Y69.933 E8.32911
G1 X65.267 Y68.000 E8.71729
G1 X66.016 Y66.191 E9.08063
M204 S2000
G1 X66.892 Y66.409 F7800.000
G1 F1800.000 E3.08063
G1 Z1.300 F7800.000
G92 E0
G1 X68.130 Y73.813
G1 Z0.800
G1 F1800.000 E6.00000
G1 X67.780 Y73.462 F600.000 E6.04354
G1 X68.208 Y73.293 E6.08406
G1 X67.874 Y72.958 E6.12568
G1 X68.015 Y72.501 E6.16772
G1 X67.991 Y72.477 E6.17070
G1 X68.101 Y71.391 F7800.000
G1 X68.134 Y71.423 F600.000 E6.17475
G1 X68.524 Y71.216 F7800.000
G1 X68.554 Y71.245 F600.000 E6.17844
G1 X68.947 Y71.040 F7800.000
G1 X68.974 Y71.067 F600.000 E6.18177
G1 X69.370 Y70.865 F7800.000
G1 X69.394 Y70.889 F600.000 E6.18475
G1 X69.793 Y70.690 F7800.000
G1 X69.814 Y70.711 F600.000 E6.18738
G1 X70.216 Y70.515 F7800.000
G1 X70.234 Y70.533 F600.000 E6.18965
G1 X70.547 Y70.248 F7800.000
G1 X70.515 Y70.216 F600.000 E6.19363
G1 X70.719 Y69.822 F7800.000
G1 X70.690 Y69.793 F600.000 E6.19725
G1 X70.892 Y69.396 F7800.000
G1 X70.865 Y69.370 F600.000 E6.20052
G1 X71.064 Y68.970 F7800.000
G1 X71.040 Y68.947 F600.000 E6.20343
G1 X71.236 Y68.544 F7800.000
G1 X71.216 Y68.524 F600.000 E6.20598
G1 X71.409 Y68.119 F7800.000
G1 X71.391 Y68.101 F600.000 E6.20817
G1 X71.180 Y67.292 F7800.000
G1 X71.111 Y67.222 F600.000 E6.21676
G1 X70.740 Y66.254 F7800.000
G1 X70.688 Y66.201 F600.000 E6.22324
G1 X69.799 Y65.312 F7800.000
G1 X69.730 Y65.243 F600.000 E6.23180
G1 X68.778 Y64.889 F7800.000
G1 X68.725 Y64.837 F600.000 E6.23832
G1 X67.899 Y64.609 F7800.000
G1 X67.866 Y64.577 F600.000 E6.24236
G1 X67.476 Y64.784 F7800.000
G1 X67.446 Y64.755 F600.000 E6.24605
G1 X67.053 Y64.960 F7800.000
G1 X67.026 Y64.933 F600.000 E6.24939
G1 X66.630 Y65.135 F7800.000
G1 X66.606 Y65.111 F600.000 E6.25237
G1 X66.207 Y65.310 F7800.000
G1 X66.186 Y65.289 F600.000 E6.25500
G1 X65.784 Y65.485 F7800.000
G1 X65.766 Y65.467 F600.000 E6.25727
G1 X65.453 Y65.752 F7800.000
G1 X65.485 Y65.784 F600.000 E6.26125
G1 X65.281 Y66.178 F7800.000
G1 X65.310 Y66.207 F600.000 E6.26487
G1 X65.108 Y66.604 F7800.000
G1 X65.135 Y66.630 F600.000 E6.26813
G1 X64.936 Y67.030 F7800.000
G1 X64.960 Y67.053 F600.000 E6.27104
G1 X64.764 Y67.456 F7800.000
G1 X64.784 Y67.476 F600.000 E6.27359
G1 X64.591 Y67.881 F7800.000
G1 X64.609 Y67.899 F600.000 E6.27579
G1 X64.820 Y68.708 F7800.000
G1 X64.889 Y68.777 F600.000 E6.28438
G1 X65.260 Y69.746 F7800.000
G1 X65.312 Y69.799 F600.000 E6.29086
G1 X66.270 Y70.757 F7800.000
G1 X66.201 Y70.688 F600.000 E6.29941
G1 X67.223 Y71.111 F7800.000
G1 X67.275 Y71.163 F600.000 E6.30594
G1 F1800.000 E0.30594
G1 Z1.300 F7800.000
G92 E0
G1 X64.860 Y71.140
G1 Z0.800
G1 F1800.000 E6.00000
G1 X64.860 Y71.141 F600.000 E6.00005
G1 X64.634 Y71.513 F7800.000
G1 X64.487 Y71.366 F600.000 E6.01820
G1 X64.115 Y71.592 F7800.000
G1 X64.408 Y71.885 F600.000 E6.05445
G1 X64.073 Y72.148 F7800.000
G1 X63.852 Y71.927 F600.000 E6.08185
G1 F1800.000 E0.08185
G1 Z1.300 F7800.000
G92 E0
G1 X63.499 Y67.985
G1 Z0.800
G1 F1800.000 E6.00000
G1 X63.523 Y68.009 F600.000 E6.00297
G1 X62.707 Y67.792 F7800.000
G1 X63.042 Y68.127 F600.000 E6.04444
G1 X62.538 Y68.220 F7800.000
G1 X62.187 Y67.870 F600.000 E6.08783
G1 F1800.000 E0.08783
G1 Z1.300 F7800.000
G92 E0
G1 X64.099 Y64.398
G1 Z0.800
G1 F1800.000 E6.00000
G1 X63.964 Y64.263 F600.000 E6.01668
G1 X64.263 Y63.964 F7800.000
G1 X64.398 Y64.099 F600.000 E6.03334
G1 F1800.000 E0.03334
G1 Z1.300 F7800.000
G92 E0
G1 X68.009 Y63.523
G1 Z0.800
G1 F1800.000 E6.00000
G1 X67.985 Y63.499 F600.000 E6.00298
G1 X68.126 Y63.042 F7800.000
G1 X67.792 Y62.707 F600.000 E6.04445
G1 X68.220 Y62.538 F7800.000
G1 X67.870 Y62.187 F600.000 E6.08784
G1 F1800.000 E0.08784
G1 Z1.300 F7800.000
G92 E0
G1 X71.366 Y64.487
G1 Z0.800
G1 F1800.000 E6.00000
G1 X71.513 Y64.634 F600.000 E6.01815
G1 X71.140 Y64.860 F7800.000
G1 X71.140 Y64.859 F600.000 E6.01820
G1 X71.885 Y64.408 F7800.000
G1 X71.592 Y64.115 F600.000 E6.05445
G1 X71.927 Y63.852 F7800.000
G1 X72.148 Y64.073 F600.000 E6.08185
G1 F1800.000 E0.08185
G1 Z1.300 F7800.000
G92 E0
G1 X72.958 Y67.873
G1 Z0.800
G1 F1800.000 E6.00000
G1 X73.293 Y68.208 F600.000 E6.04148
G1 X72.501 Y68.015 F7800.000
G1 X72.477 Y67.991 F600.000 E6.04445
G1 X73.462 Y67.780 F7800.000
G1 X73.813 Y68.130 F600.000 E6.08783
G1 F1800.000 E0.08783
G1 Z1.300 F7800.000
G92 E0
G1 X71.901 Y71.602
G1 Z0.800
G1 F1800.000 E6.00000
G1 X72.036 Y71.737 F600.000 E6.01667
G1 X71.737 Y72.036 F7800.000
G1 X71.602 Y71.901 F600.000 E6.03334
G1 F1800.000 E0.03334
G1 Z1.600 F7800.000
G92 E0
G1 X71.189 Y72.542
G1 Z1.100
G1 F1800.000 E6.00000
M204 S2000
G1 X70.989 Y72.364 F600.000 E6.02192
G1 X70.308 Y71.243 E6.12895
G1 X68.664 Y71.940 E6.27471
G1 X68.972 Y73.199 E6.38053
G1 X68.957 Y73.467 E6.40246
G1 X68.827 Y73.972 E6.44505
G1 X68.494 Y74.660 E6.50737
G1 X68.000 Y75.306 E6.57378
G1 X67.506 Y74.660 E6.64019
G1 X67.173 Y73.972 E6.70251
G1 X67.043 Y73.467 E6.74511
G1 X67.028 Y73.199 E6.76703
G1 X67.339 Y71.925 E6.87406
G1 X65.684 Y71.256 E7.01982
G1 X65.011 Y72.364 E7.12564
G1 X64.811 Y72.542 E7.14756
G1 X64.361 Y72.808 E7.19016
G1 X63.640 Y73.058 E7.25248
G1 X62.834 Y73.166 E7.31889
G1 X62.942 Y72.360 E7.38530
G1 X63.192 Y71.639 E7.44762
G1 X63.458 Y71.189 E7.49021
G1 X63.636 Y70.989 E7.51214
G1 X64.757 Y70.308 E7.61917
G1 X64.060 Y68.664 E7.76492
G1 X62.801 Y68.972 E7.87075
G1 X62.533 Y68.957 E7.89267
G1 X62.028 Y68.827 E7.93527
G1 X61.340 Y68.494 E7.99759
G1 X60.694 Y68.000 E8.06400
G1 X61.340 Y67.506 E8.13040
G1 X62.028 Y67.173 E8.19272
G1 X62.533 Y67.043 E8.23532
G1 X62.801 Y67.028 E8.25724
G1 X64.075 Y67.339 E8.36427
G1 X64.744 Y65.684 E8.51003
G1 X63.636 Y65.011 E8.61585
G1 X63.458 Y64.811 E8.63778
G1 X63.192 Y64.361 E8.68037
G1 X62.942 Y63.640 E8.74269
G1 X62.834 Y62.834 E8.80910
G1 X63.640 Y62.942 E8.87551
G1 X64.361 Y63.192 E8.93783
G1 X64.811 Y63.458 E8.98043
G1 X65.011 Y63.636 E9.00235
G1 X65.692 Y64.757 E9.10938
G1 X67.336 Y64.060 E9.25514
G1 X67.028 Y62.801 E9.36096
G1 X67.043 Y62.533 E9.38288
G1 X67.173 Y62.028 E9.42548
G1 X67.506 Y61.340 E9.48780
G1 X68.000 Y60.694 E9.55421
G1 X68.494 Y61.340 E9.62062
G1 X68.827 Y62.028 E9.68294
G1 X68.957 Y62.533 E9.72553
G1 X68.972 Y62.801 E9.74746
G1 X68.661 Y64.075 E9.85449
G1 X70.316 Y64.744 E10.00024
G1 X70.989 Y63.636 E10.10607
G1 X71.189 Y63.458 E10.12799
G1 X71.639 Y63.192 E10.17059
G1 X72.360 Y62.942 E10.23291
G1 X73.166 Y62.834 E10.29932
G1 X73.058 Y63.640 E10.36572
G1 X72.808 Y64.361 E10.42804
G1 X72.542 Y64.811 E10.47064
G1 X72.364 Y65.011 E10.49256
G1 X71.243 Y65.692 E10.59959
G1 X71.940 Y67.336 E10.74535
G1 X73.199 Y67.028 E10.85117
G1 X73.467 Y67.043 E10.87310
G1 X73.972 Y67.173 E10.91569
G1 X74.660 Y67.506 E10.97801
G1 X75.306 Y68.000 E11.04442
G1 X74.660 Y68.494 E11.11083
